icons/linear-new-medic-health-heart-like.svg

<svg xmlns="http://www.w3.org/2000/svg" width="32px" height="32px" viewBox="0 0 32 32" version="1.1">
    <title>linear-new-medic-health-heart-like</title>
    <g id="linear-new-medic-health-heart-like" stroke-width="1" fill-rule="evenodd">
        <path d="M16.1229433,5.38738349 C20.1058315,1.68590965 26.5472958,3.22748769 29.0843059,8.37007576 C32.193238,14.6719651 28.1440009,22.7885974 16.5194153,29.8545219 C16.2003021,30.0484927 15.7996979,30.0484927 15.4805847,29.8545219 C3.85599913,22.7885974 -0.193237981,14.6719651 2.91569412,8.37007576 C5.45270423,3.22748769 11.8941685,1.68590965 15.8770567,5.38738349 L15.9992235,5.50475782 L16.1229433,5.38738349 Z M27.2906941,9.25492424 C25.1659975,4.94810672 19.6563493,3.9278015 16.7893522,7.61394061 C16.3889943,8.12868646 15.6110057,8.12868646 15.2106478,7.61394061 C12.3436507,3.9278015 6.83400253,4.94810672 4.70930588,9.25492424 C2.20684358,14.327483 5.50385388,21.1949731 15.7000952,27.6377598 L15.9992235,27.8257578 L16.2999048,27.6377598 C26.361985,21.2797466 29.7051985,14.5081329 27.3864608,9.45608403 L27.2906941,9.25492424 Z" id="&#24418;&#29366;" fill-rule="nonzero" />
    </g>
</svg>

<svg xmlns="http://www.w3.org/2000/svg" viewBox="0 0 32 32"><path fill="currentColor" d="M16.123 5.387c3.983-3.701 10.424-2.16 12.961 2.983 3.11 6.302-.94 14.419-12.565 21.485a1 1 0 0 1-1.038 0C3.856 22.789-.193 14.672 2.916 8.37c2.537-5.143 8.978-6.684 12.961-2.983l.122.118zM27.29 9.255c-2.125-4.307-7.635-5.327-10.502-1.641a1 1 0 0 1-1.578 0c-2.867-3.686-8.377-2.666-10.502 1.64-2.502 5.073.795 11.941 10.991 18.384l.3.188.3-.188c10.062-6.358 13.405-13.13 11.086-18.182z"/></svg>
